packages/astro-components-stencil/src/icons/battery-charging-30.svg

<svg width="24" height="24" viewBox="0 0 24 24" fill="none" xmlns="http://www.w3.org/2000/svg">
<path fill-rule="evenodd" clip-rule="evenodd" d="M13 2C13.5107 2 13.9352 2.38801 13.9932 2.8838L14 3V4H15.67C16.3571 4 16.929 4.53149 16.9939 5.20262L17 5.33V20.67C17 21.3571 16.4685 21.929 15.789 21.9939L15.66 22H8.33C7.64294 22 7.07104 21.4685 7.00613 20.7974L7 20.67V5.33C7 4.64294 7.53149 4.07104 8.20262 4.00613L8.33 4H10V3C10 2.48929 10.388 2.0648 10.8838 2.00676L11 2H13ZM13 3H11V5H8.33C8.1745 5 8.03847 5.11659 8.00689 5.2648L8 5.33L7.999 15L9.669 14.9992L9.67096 16.4997C9.67096 18.0582 11.7622 18.581 12.4933 17.2103L13.674 14.9992L16 15V5.33C16 5.1745 15.8834 5.03847 15.7352 5.00689L15.67 5H13V3ZM12.671 10.9997V7.49969C12.671 6.97969 11.971 6.80969 11.731 7.25969L9.06096 12.2597C8.88096 12.5997 9.12096 12.9997 9.50096 12.9997H10.671V16.4997C10.671 17.0197 11.371 17.1897 11.611 16.7397L14.281 11.7397C14.461 11.3997 14.211 10.9997 13.841 10.9997H12.671Z" fill="black"/>
</svg>

<svg xmlns="http://www.w3.org/2000/svg" viewBox="0 0 24 24"><g xmlns="http://www.w3.org/2000/svg" id="battery-charging-30" fill-rule="nonzero">
            <path d="M13 2c.51 0 .935.388.993.884L14 3v1h1.67c.687 0 1.259.531 1.324 1.203L17 5.33v15.34c0 .687-.531 1.259-1.211 1.324L15.66 22H8.33a1.337 1.337 0 01-1.324-1.203L7 20.67V5.33c0-.687.531-1.259 1.203-1.324L8.33 4H10V3c0-.51.388-.935.884-.993L11 2h2zm0 1h-2v2H8.33a.337.337 0 00-.323.265L8 5.33 7.999 15h1.67l.002 1.5c0 1.558 2.091 2.081 2.822.71L13.674 15H16V5.33a.337.337 0 00-.265-.323L15.67 5H13V3zm-.329 4.5V11h1.17c.37 0 .62.4.44.74l-2.67 5c-.24.45-.94.28-.94-.24V13h-1.17a.5.5 0 01-.44-.74l2.67-5c.24-.45.94-.28.94.24z"/>
        </g></svg>
